src/images/popup-icon-name.svg

<svg width="25" height="25" viewBox="0 0 25 25" fill="none" xmlns="http://www.w3.org/2000/svg">
<path fill-rule="evenodd" clip-rule="evenodd" d="M12.166 4.48828C9.95688 4.48828 8.16602 6.27914 8.16602 8.48828C8.16602 10.6974 9.95688 12.4883 12.166 12.4883C14.3752 12.4883 16.166 10.6974 16.166 8.48828C16.166 6.27914 14.3752 4.48828 12.166 4.48828ZM6.16602 8.48828C6.16602 5.17457 8.85231 2.48828 12.166 2.48828C15.4797 2.48828 18.166 5.17457 18.166 8.48828C18.166 11.802 15.4797 14.4883 12.166 14.4883C8.85231 14.4883 6.16602 11.802 6.16602 8.48828ZM8.16602 18.4883C6.50916 18.4883 5.16602 19.8314 5.16602 21.4883C5.16602 22.0406 4.7183 22.4883 4.16602 22.4883C3.61373 22.4883 3.16602 22.0406 3.16602 21.4883C3.16602 18.7269 5.40459 16.4883 8.16602 16.4883H16.166C18.9274 16.4883 21.166 18.7269 21.166 21.4883C21.166 22.0406 20.7183 22.4883 20.166 22.4883C19.6137 22.4883 19.166 22.0406 19.166 21.4883C19.166 19.8314 17.8229 18.4883 16.166 18.4883H8.16602Z" fill="#999999"/>
</svg>

<svg xmlns="http://www.w3.org/2000/svg" width="25" height="25" fill="none"><path fill="#999" fill-rule="evenodd" d="M12.166 4.488a4 4 0 1 0 0 8 4 4 0 0 0 0-8Zm-6 4a6 6 0 1 1 12 0 6 6 0 0 1-12 0Zm2 10a3 3 0 0 0-3 3 1 1 0 1 1-2 0 5 5 0 0 1 5-5h8a5 5 0 0 1 5 5 1 1 0 1 1-2 0 3 3 0 0 0-3-3h-8Z" clip-rule="evenodd"/></svg>
